X: 4181
T: Blue Ribbon, The
R: polka
M: 2/4
K: Dmajor
|:FG|A2 d/e/f/g/|aa f2|g2 f/g/f/e/|df A2|
AF/A d/e/f/g/|aa f2|g>g f/g/f/e/|d2:|
|:cd|af dc/d/|eA A/B/c/A/|dc Ag|fd d/c/d/f/|
af dc/d/|eA AF/A/|dc AF|G2:|

